!!!!SEGMENT: Any1007c-Missa_Salve_regina-Credo--Vienna_4810.krn
!!!id: Any1007c
!!!SMS: Vienna 4810
!!!AGN: Mass; Credo
!!!voices: 4
!!!OPR: Missa Salve regina (Vienna 4810)
!!!COM: Anonymous
!!!OTL: Credo
**kern	**kern	**kern	**kern
*part4	*part3	*part2	*part1
*staff4	*staff3	*staff2	*staff1
*I"Bassus	*I"Tenor	*I"Altus	*I"Superius
*I'B	*I'T	*I'A	*I'S
*clefF4	*clefGv2	*clefGv2	*clefG2
*k[b-]	*k[b-]	*k[b-]	*k[b-]
*F:	*F:	*F:	*F:
*M2/1	*M2/1	*M2/1	*M2/1
*met(C)	*met(C)	*met(C)	*met(C)
=1	=1	=1	=1
!!section: Patrem
!!!OMD: Patrem
0G	0r	0r	0r
=2	=2	=2	=2
1F	0d	0r	0r
1G	.	.	.
=3	=3	=3	=3
1C	1c	0r	0r
[1G	[1d	.	.
=4	=4	=4	=4
2G]	1d]	0r	0r
2F	.	.	.
2E-X	1G	.	.
2C	.	.	.
=5	=5	=5	=5
2.D	1.d	0r	0r
4E	.	.	.
4F	.	.	.
4G	.	.	.
[2A	2c	.	.
=6	=6	=6	=6
2A]	1B-y	0r	0r
1G	.	.	.
.	1A	.	.
2F#i	.	.	.
=7	=7	=7	=7
2.G	2.G	0r	0r
4F	4A	.	.
4D	4B-y	.	.
4E	4c	.	.
[2F	[2d	.	.
=8	=8	=8	=8
4F]	4d]	0r	0r
4E	4c	.	.
4D	1c	.	.
4C	.	.	.
1D	.	.	.
.	2BnXi	.	.
=9	=9	=9	=9
1C	0c	0r	0r
2r	.	.	.
2F	.	.	.
=10	=10	=10	=10
2F	2r	0r	0r
2E	2c	.	.
2F	2c	.	.
2G	2B-y	.	.
=11	=11	=11	=11
1A	1c	0r	0r
2.F	1d	.	.
4G	.	.	.
=12	=12	=12	=12
4A	4c	0r	0r
4B-y	4d	.	.
2c	4e	.	.
.	4f	.	.
2B-y	2g	.	.
[2c	[2a	.	.
=13	=13	=13	=13
4c]	4a]	0r	0r
4B-y	4g	.	.
4A	1g	.	.
4G	.	.	.
1A	.	.	.
.	2f#i	.	.
=14	=14	=14	=14
0G	0g	1g	1r
.	.	2b-y	1dd
.	.	2b-y	.
=15	=15	=15	=15
0r	0r	2a	2ff
.	.	2a	2ff
.	.	2g	2ee
.	.	2g	2ee
=16	=16	=16	=16
0r	0r	2f	2dd
.	.	2b-y	2dd
.	.	2a	2cc
.	.	2f	2ff
=17	=17	=17	=17
0r	0r	2g	2ee
.	.	2e	2cc
.	.	2.d	2dd
.	.	.	2b-y
.	.	4e	.
=18	=18	=18	=18
0r	0r	4f	2.a
.	.	4g	.
.	.	2a	.
.	.	.	4b-y
.	.	2f	4cc
.	.	.	4dd
.	.	[2g	[2ee
=19	=19	=19	=19
0r	0r	4g]	4ee]
.	.	4f	4dd
.	.	4e	1dd
.	.	4d	.
.	.	1e	.
.	.	.	2cc#i
=20	=20	=20	=20
1r	0r	1d	1dd
2r	.	2r	2r
[2G	.	[2g	[2b-y
=21	=21	=21	=21
2G]	1r	2g]	2b-]
2G	.	2g	2b-y
2A	2r	2e	1cc
2A	[2c	2e	.
=22	=22	=22	=22
2F	2c]	2.f	2cc
2F	2c	.	1a
.	.	4f	.
1D	2d	1f	.
.	2d	.	2a
=23	=23	=23	=23
2r	2B-y	1d	2b-y
1G	2B-y	.	1dd
.	1G	2B-y	.
2C	.	2c	[2cc
=24	=24	=24	=24
1G	1B-y	2d	2cc]
.	.	2e	1b-y
1F	1c	1f	.
.	.	.	2a
=25	=25	=25	=25
1BB-y	1d	2r	2b-y
.	.	2f	2dd
2r	1c	2g	2ee-i
2F	.	[2a	2cc
=26	=26	=26	=26
2B-y	2r	2a]	2b-y
2G	2B-y	1g	2.dd
1A-X	2e-X	.	.
.	.	.	4cc
.	2c	2f	[2cc
=27	=27	=27	=27
1G	1d	2.g	2cc]
.	.	.	2bnXi
.	.	4f	.
2r	1c	4e	2.cc
.	.	4d	.
2C	.	[2e	.
.	.	.	4b-y
=28	=28	=28	=28
2F	2r	4e]	4a
.	.	4d	4g
2D	2F	1d	1a
1E-X	2B-y	.	.
.	2G	2c	[2g
=29	=29	=29	=29
1D	1A	0d	2g]
.	.	.	2f#i
2r	1G	.	[1g
2G	.	.	.
=30	=30	=30	=30
2G	2r	0r	1g]
1B-y	2d	.	.
.	2d	.	1r
2A	[2f	.	.
=31	=31	=31	=31
1G	2f]	0r	0r
.	2e	.	.
2F	1d	.	.
2D	.	.	.
=32	=32	=32	=32
2E	2c	0r	0r
2F	2A	.	.
2G	2B-y	.	.
2A	2c	.	.
=33	=33	=33	=33
2B-y	2d	1r	1r
2G	2e	.	.
1F	2f	2r	2.a
.	2d	[2f	.
.	.	.	4g
=34	=34	=34	=34
0r	1c	2f]	4a
.	.	.	4b-y
.	.	2e	2cc
.	1r	2d	2b-y
.	.	2c	[2a
=35	=35	=35	=35
0r	0r	1B-y	2a]
.	.	.	2g
.	.	2A	[1a
.	.	[2d	.
=36	=36	=36	=36
0r	0r	2d]	1a]
.	.	4c	.
.	.	4B-y	.
.	.	2c	2r
.	.	2d	[2dd
=37	=37	=37	=37
0r	0r	2G	2dd]
.	.	2g	4cc
.	.	.	4b-y
.	.	2e	2cc
.	.	[2f	2dd
=38	=38	=38	=38
0r	0r	2f]	4a
.	.	.	4b-y
.	.	4e	4cc
.	.	4d	4dd
.	.	2c	2ee
.	.	2d	[2ff
=39	=39	=39	=39
0r	0r	2f	4ff]
.	.	.	4ee
.	.	2g	1dd
.	.	1e	.
.	.	.	2cc#i
=40	=40	=40	=40
0r	0r	1d	0dd
.	.	2r	.
.	.	[2g	.
=41	=41	=41	=41
0r	0r	2g]	2r
.	.	2f	1dd
.	.	1e-X	.
.	.	.	2cc
=42	=42	=42	=42
0r	0r	2d	1b-y
.	.	2B-y	.
.	.	2c	2a
.	.	2d	2f
=43	=43	=43	=43
0r	0r	2e-X	2g
.	.	2.d	2a
.	.	.	2b-y
.	.	4B-y	.
.	.	[2c	[2a
=44	=44	=44	=44
0r	2r	4c]	4a]
.	.	4B-y	4g
.	1c	4A	1g
.	.	4G	.
.	.	1A	.
.	2c	.	2f#i
=45	=45	=45	=45
2r	2B-y	1G	0g
1G	2G	.	.
.	1B-y	2r	.
2G	.	[2d	.
=46	=46	=46	=46
2F	0A	2d]	0r
2D	.	2d	.
1F	.	2c	.
.	.	2A	.
=47	=47	=47	=47
1E	1r	3G	0r
.	.	3F	.
.	.	3G	.
2r	2.c	1A	.
2F	.	.	.
.	4c	.	.
=48	=48	=48	=48
2F	2c	2r	0r
2F	2c	1f	.
2BB-y	2B-y	.	.
2C	2G	2e	.
=49	=49	=49	=49
4BB-y	1B-y	2d	1r
4C	.	.	.
4D	.	2d	.
4E	.	.	.
2F	2A	2c	2r
2G	[2d	2B-y	[2g
=50	=50	=50	=50
1E	2d]	1G	2g]
.	2c#i	.	2g
1D	1d	1A	2f
.	.	.	2f
=51	=51	=51	=51
0r	1c	2r	2g
.	.	1c	1a
.	1F	.	.
.	.	2c	4g
.	.	.	4f
=52	=52	=52	=52
0r	0r	2B-y	2.g
.	.	2c	.
.	.	.	4a
.	.	2d	2b-y
.	.	[2e-X	[2cc
=53	=53	=53	=53
1r	0r	4e-]	2cc]
.	.	4d	.
.	.	4c	1b-y
.	.	4B-y	.
1F	.	1c	.
.	.	.	2a
=54	=54	=54	=54
1G	1B-y	1B-y	1b-y
2.A	1c	1r	1r
4G	.	.	.
=55	=55	=55	=55
2F	2.d	1r	0r
2E	.	.	.
.	4c	.	.
1D	2B-y	1f	.
.	2A	.	.
=56	=56	=56	=56
0r	1G	2g	1b-y
.	.	2g	.
.	1r	2.a	2cc
.	.	.	2cc
.	.	4g	.
=57	=57	=57	=57
1r	2r	2f	2.dd
.	1g	2e	.
.	.	.	4cc
2r	.	1d	2b-y
2D	2f	.	2a
=58	=58	=58	=58
2E	2.e	0r	2g
2C	.	.	2.a
.	4d	.	.
2F	2c	.	.
.	.	.	4g
2BB-y	2B-y	.	[2g
=59	=59	=59	=59
2C	1A	1r	2g]
2D	.	.	2f#i
1E	1G	2r	1g
.	.	[2g	.
=60	=60	=60	=60
1D	0r	2g]	2r
.	.	2f	2a
1r	.	2e	2.b-y
.	.	2d	.
.	.	.	4a
=61	=61	=61	=61
2r	0r	2c	2a
1d	.	2B-y	2.g
.	.	1A	.
.	.	.	4f
2c	.	.	2f
=62	=62	=62	=62
2.B-y	2.d	2.G	2g
.	.	.	2.b-y
4A	4c	4A	.
2G	2B-y	4B-y	.
.	.	4c	4a
2F	[2A	[2d	4g
.	.	.	4f
=63	=63	=63	=63
1E	2A]	2d]	1g
.	2G	2c#i	.
1D	2A	1d	2.f
.	[2f	.	.
.	.	.	4g
=64	=64	=64	=64
2r	4f]	2r	2a
.	4e	.	.
2.BB-y	2.d	2.f	2.b-y
4C	4c	4e	4a
2D	4B-y	[2d	[2a
.	4A	.	.
=65	=65	=65	=65
1E-i	1G	2d]	4a]
.	.	.	4g
.	.	2c	1g
1D	1A	[1dl	.
.	.	.	2f#i
=66	=66	=66	=66
0Gl	0Gl	0d]	0gl
=67||	=67||	=67||	=67||
*M2/1	*M2/1	*M2/1	*M2/1
*met(C)	*met(C)	*met(C)	*met(C|)
!!section: Et incarnatus
!!!OMD: Et incarnatus
0r	0r	1g	1g
.	.	2g	[1b-y
.	.	2g	.
=68	=68	=68	=68
0r	0r	1d	2b-]
.	.	.	2b-y
.	.	1e	2cc
.	.	.	2cc
=69	=69	=69	=69
2r	2r	1d	1dd
2D	2d	.	.
2D	2d	1r	1r
2D	2d	.	.
=70	=70	=70	=70
1F	1A	0r	1r
1G	1B-y	.	2r
.	.	.	[2dd
=71	=71	=71	=71
1A	1A	2r	2dd]
.	.	2e	2cc
1r	1r	2f	2a
.	.	2d	2b-y
=72	=72	=72	=72
0r	0r	2c	2cc
.	.	2.f	2.dd
.	.	4e	4cc
.	.	2d	[2b-y
=73	=73	=73	=73
2r	1r	1c	2b-]
2F	.	.	2a
2G	2r	2.B-y	1b-y
2E	2G	.	.
.	.	4c	.
=74	=74	=74	=74
2D	2B-y	2d	0r
2.F	2.A	2.c	.
4E	4G	4B-y	.
2D	[2F	[2B-y	.
=75	=75	=75	=75
1C	2F]	2B-]	0r
.	2E	2A	.
[1BB-y	[1F	[1B-y	.
=76	=76	=76	=76
1BB-]	1F]	1B-]	0r
1r	1r	1r	.
=77	=77	=77	=77
0BB-y	1.F	0f	0dd
.	2G	.	.
=78	=78	=78	=78
1F	1A	1f	1cc
1G	1B-y	[1d	1b-y
=79	=79	=79	=79
1D	1F	1d]	1a
1E	1G	1c	[1g
=80	=80	=80	=80
0D	0A	0d	2g]
.	.	.	4f#i
.	.	.	4e
.	.	.	1f#i
=81	=81	=81	=81
1G	0G	1B-y	0g
1r	.	1r	.
=82	=82	=82	=82
0G	0r	1d	0r
.	.	2e	.
.	.	[2d	.
=83	=83	=83	=83
1G	0r	2d]	0r
.	.	4c	.
.	.	4B-y	.
1G	.	2d	.
.	.	2e	.
=84	=84	=84	=84
1D	0r	2f	0r
.	.	1d	.
[1F	.	.	.
.	.	2d	.
=85	=85	=85	=85
2F]	0r	2A	0r
2F	.	1d	.
2E	.	.	.
2F	.	[2c	.
=86	=86	=86	=86
1D	0r	2c]	0r
.	.	2B-y	.
1C	.	2c	.
.	.	[2G	.
=87	=87	=87	=87
2r	0r	4G]	0r
.	.	4A	.
2BB-y	.	4B-y	.
.	.	4c	.
4BB-y	.	4d	.
4C	.	4e	.
4D	.	[2f	.
4E	.	.	.
=88	=88	=88	=88
2F	0r	2f]	0r
2G	.	4e	.
.	.	4d	.
2A	.	2c	.
[2G	.	2d	.
=89	=89	=89	=89
4G]	0r	2e	0r
4F	.	.	.
4E	.	2.d	.
4D	.	.	.
1E	.	.	.
.	.	4c	.
.	.	4B-y	.
.	.	4A	.
=90	=90	=90	=90
0D	0r	1B-y	0r
.	.	1A	.
=91	=91	=91	=91
1.BB-y	1.d	2r	1.b-y
.	.	1f	.
2BB-y	2d	2f	2b-y
=92	=92	=92	=92
1F	1c	1f	1a
1G	1B-y	2e	1g
.	.	[2d	.
=93	=93	=93	=93
1E-X	1G	2d]	2g
.	.	4c	1g
.	.	4B-y	.
1E-i	1G	1c	.
.	.	.	4f
.	.	.	4e
=94	=94	=94	=94
0Dl	0Al	0dl	0fl
=95||	=95||	=95||	=95||
*M2/1	*M2/1	*M2/1	*M2/1
*met(C|)	*met(C)	*met(C|)	*met(C)
!!section: Et resurrexit
!!!OMD: Et resurrexit
0r	0r	1.G	0r
.	.	2G	.
=96	=96	=96	=96
0r	0r	1B-y	1.g
.	.	1c	.
.	.	.	2g
=97	=97	=97	=97
0r	0r	1d	1b-y
.	.	2r	1cc
.	.	2e	.
=98	=98	=98	=98
0r	0r	2f	1dd
.	.	1d	.
.	.	.	[1ff
.	.	4c	.
.	.	4B-y	.
=99	=99	=99	=99
0r	0r	4A	2ff]
.	.	4B-y	.
.	.	4c	4ee
.	.	4d	4dd
.	.	2e	2cc
.	.	[2f	2dd
=100	=100	=100	=100
0r	0r	2f]	4a
.	.	.	4b-y
.	.	4e	4cc
.	.	4d	4dd
.	.	2c	2ee
.	.	2d	[2ff
=101	=101	=101	=101
0r	0r	2f	4ff]
.	.	.	4ee
.	.	2g	1dd
.	.	1e	.
.	.	.	2cc#i
=102	=102	=102	=102
0r	0r	2d	0dd
.	.	2g	.
.	.	1g	.
=103	=103	=103	=103
0r	0r	2.d	2r
.	.	.	2dd
.	.	4e	.
.	.	4f	1dd
.	.	4g	.
.	.	[2f	.
=104	=104	=104	=104
0r	0r	2f]	2.a
.	.	4e	.
.	.	4d	4b-y
.	.	1c	4cc
.	.	.	4dd
.	.	.	[2cc
=105	=105	=105	=105
0r	0r	2.A	2cc]
.	.	.	4b-y
.	.	4B-y	4a
.	.	4c	2g
.	.	4d	.
.	.	[2c	[2a
=106	=106	=106	=106
1r	0r	4c]	2a]
.	.	4B-y	.
.	.	4A	1g
.	.	4G	.
1D	.	1A	.
.	.	.	2f#i
=107	=107	=107	=107
1d	1G	1G	0g
1c	1g	1r	.
=108	=108	=108	=108
2d	1f	0r	0r
1B-y	.	.	.
.	2g	.	.
4A	[2f	.	.
4G	.	.	.
=109	=109	=109	=109
2A	2f]	0r	0r
2B-y	4e	.	.
.	4d	.	.
2c	2e	.	.
[2B-y	2f	.	.
=110	=110	=110	=110
2B-]	4B-y	0r	0r
.	4c	.	.
4A	4d	.	.
4G	4e	.	.
2F	2f	.	.
[2G	[2e	.	.
=111	=111	=111	=111
4G]	4e]	0r	0r
4F	4d	.	.
4E	1d	.	.
4D	.	.	.
1E	.	.	.
.	2c#i	.	.
=112	=112	=112	=112
2D	1d	0r	0r
2G	.	.	.
2G	2r	.	.
2F	2d	.	.
=113	=113	=113	=113
2G	2d	0r	0r
2A	2c	.	.
2B-y	2d	.	.
4A	2e	.	.
4G	.	.	.
=114	=114	=114	=114
2F	2.f	0r	0r
4D	.	.	.
4E	4e	.	.
4F	2d	.	.
4G	.	.	.
[2A	[2c	.	.
=115	=115	=115	=115
2A]	4c]	0r	1r
.	4B-y	.	.
1G	4A	.	.
.	4G	.	.
.	1A	.	2r
2F#i	.	.	2dd
=116	=116	=116	=116
1G	0G	2r	2.dd
.	.	2g	.
.	.	.	4cc
1r	.	2.g	2b-y
.	.	.	2a
.	.	4f	.
=117	=117	=117	=117
0r	1r	2e	2g
.	.	2d	2f
.	2r	2c	1g
.	2g	2B-y	.
=118	=118	=118	=118
2r	2.g	1c	0r
2c	.	.	.
.	4f	.	.
2.c	2e	1r	.
.	2d	.	.
4B-y	.	.	.
=119	=119	=119	=119
2A	2c	2r	2r
2G	2B-y	2B-y	2g
2F	1c	2A	2a
2E	.	2G	[2b-y
=120	=120	=120	=120
1F	0r	2.A	4b-]
.	.	.	4a
.	.	.	1a
.	.	4c	.
2r	.	1B-y	.
2BB-y	.	.	2d
=121	=121	=121	=121
2C	2r	1A	2e
2D	2A	.	2f
2E-i	2G	1r	2g
2D	2F	.	[2a
=122	=122	=122	=122
1E-i	1G	1r	4a]
.	.	.	4g
.	.	.	1g
1D	1A	2r	.
.	.	[2d	2f#i
=123	=123	=123	=123
2r	1G	2d]	1g
1G	.	2d	.
.	2r	1B-y	1r
2G	[2g	.	.
=124	=124	=124	=124
2E	2g]	1G	2r
1C	2f	.	2.cc
.	2e	2r	.
.	.	.	4b-y
2F	2c	2A	[2a
=125	=125	=125	=125
2D	2f	2F	4a]
.	.	.	4g
2E	2e	2G	1g
2F	2c	1A	.
2D	2d	.	2f#i
=126	=126	=126	=126
1C	2.e	2r	0g
.	.	1c	.
.	4d	.	.
2r	2c	.	.
2G	2B-y	2d	.
=127	=127	=127	=127
2C	2c	2e	2r
2D	2A	2f	2dd
2E	2.G	[1gl	2b-y
2C	.	.	2cc
.	4A	.	.
=128	=128	=128	=128
[0Gl	[0B-yl	0g_	2dd
.	.	.	2g
.	.	.	[1ddl
=129	=129	=129	=129
0G]	0B-]	0g]	0dd]
=130||	=130||	=130||	=130||
*M2/1	*M2/1	*M2/1	*M2/1
*met(C)	*met(C|)	*met(C)	*met(C)
!!section: Et in spiritum
!!!OMD: Et in spiritum
1r	1G	0r	2r
.	.	.	1g
1D	1d	.	.
.	.	.	2f
=131	=131	=131	=131
1A	2e	1r	2e
.	2e	.	2c
2B-y	1d	1d	2d
2B-y	.	.	[2dd
=132	=132	=132	=132
1A	1r	1a	2dd]
.	.	.	2cc
1r	1G	2b-y	2b-y
.	.	2b-y	2g
=133	=133	=133	=133
1D	1d	2a	0a
.	.	1d	.
1A	2e	.	.
.	2e	2c	.
=134	=134	=134	=134
2B-y	1d	2f	2r
2B-y	.	2g	1dd
1A	1r	1e	.
.	.	.	2cc
=135	=135	=135	=135
1r	2.G	1d	2b-y
.	.	.	2g
.	4G	.	.
2.D	2d	2r	1a
.	2d	[2d	.
4D	.	.	.
=136	=136	=136	=136
2A	1e	2d]	1r
2A	.	2c	.
1B-y	2d	2f	2r
.	2G	2g	2dd
=137	=137	=137	=137
1A	2c	1e	2dd
.	2c	.	2cc
1D	3A	[1d	2.ff
.	3G	.	.
.	3A	.	.
.	.	.	4ee
=138	=138	=138	=138
2r	1B-y	1d]	4dd
.	.	.	4cc
1BB-y	.	.	1dd
.	2r	1r	.
2BB-y	[2F	.	4cc
.	.	.	4b-y
=139	=139	=139	=139
2F	2F]	0r	1a
2D	2F	.	.
2E	2c	.	1r
2F	2A	.	.
=140	=140	=140	=140
2G	2B-y	0r	0r
2F	2c	.	.
2D	2d	.	.
[2E-i	[2c	.	.
=141	=141	=141	=141
4E-]	4c]	2r	0r
4D	4B-y	.	.
4C	1B-y	2d	.
4BB-y	.	.	.
1C	.	2e	.
.	2A	2c	.
=142	=142	=142	=142
1BB-y	1B-y	2d	2r
.	.	1f	2f
1r	1r	.	2b-y
.	.	2e	2g
=143	=143	=143	=143
0r	0r	1d	2a
.	.	.	2b-y
.	.	2c	2cc
.	.	2f	2a
=144	=144	=144	=144
0r	0r	2e	2g
.	.	2d	1dd
.	.	2.f	.
.	.	.	2cc
.	.	4e	.
=145	=145	=145	=145
0r	2r	2d	2b-y
.	2A	2c	1a
.	2.d	1B-y	.
.	.	.	2g
.	4B-y	.	.
=146	=146	=146	=146
2r	2c	1A	1a
2D	2d	.	.
2.G	1e	1r	1r
4E	.	.	.
=147	=147	=147	=147
2F	1d	1r	2r
2G	.	.	2g
1A	1r	2r	2.cc
.	.	2c	.
.	.	.	4a
=148	=148	=148	=148
1G	0r	2.g	2b-y
.	.	.	2cc
.	.	4e	.
1r	.	2f	1dd
.	.	2g	.
=149	=149	=149	=149
1r	0r	1a	1cc
2.G	.	1g	1r
4G	.	.	.
=150	=150	=150	=150
2G	2.d	0r	0r
2G	.	.	.
.	4d	.	.
2F	2d	.	.
2D	2d	.	.
=151	=151	=151	=151
1F	2c	0r	0r
.	2A	.	.
1E	1c	.	.
=152	=152	=152	=152
[0D	1B-y	2r	1r
.	.	1d	.
.	[1A	.	2r
.	.	2d	[2a
=153	=153	=153	=153
1D]	0A]	2f	2a]
.	.	2f	2a
1r	.	2.c	2cc
.	.	.	2cc
.	.	4d	.
=154	=154	=154	=154
1r	1r	2e	2.g
.	.	2c	.
.	.	.	4a
2r	2r	2B-y	2b-y
2BB-y	2B-y	2d	2g
=155	=155	=155	=155
2BB-y	2B-y	2d	2f
2BB-y	2B-y	2d	2f
2.D	2A	2d	2f
.	2d	2d	2f
4E	.	.	.
=156	=156	=156	=156
1F	4c	2A	2.a
.	4B-y	.	.
.	4A	2.c	.
.	4G	.	4b-y
2r	4F	.	1cc
.	4G	4B-y	.
[2F	4A	4A	.
.	4B-y	4G	.
=157	=157	=157	=157
4F]	2c	2F	2r
4E	.	.	.
4D	1d	1f	2a
4C	.	.	.
2BB-y	.	.	2b-y
2C	2c	2e	[2a
=158	=158	=158	=158
2D	2F	2d	2a]
2E	2G	2c	1g
1D	1A	1d	.
.	.	.	2f#i
=159	=159	=159	=159
1G	2r	2r	1g
.	1d	2d	.
1r	.	2f	2r
.	2c	2e	2g
=160	=160	=160	=160
0r	1d	2d	2.b-y
.	.	2.B-y	.
.	.	.	4cc
.	1f	.	2dd
.	.	4c	.
.	.	2d	2a
=161	=161	=161	=161
0r	1g	4G	1b-y
.	.	4A	.
.	.	4B-y	.
.	.	4c	.
.	2f	2d	2a
.	2d	[2B-y	[2dd
=162	=162	=162	=162
1r	1e	4B-]	2dd]
.	.	4G	.
.	.	2A	2cc#i
2r	1d	2F	[1dd
[2G	.	[2B-y	.
=163	=163	=163	=163
2G]	2r	4B-]	1dd]
.	.	4G	.
2F	2.d	2A	.
2G	.	2G	1r
.	4c	.	.
2G	4B-y	2g	.
.	4A	.	.
=164	=164	=164	=164
1B-y	4G	2.g	0r
.	4F	.	.
.	2G	.	.
.	.	4f	.
1c	2.A	2e	.
.	.	2e	.
.	4F	.	.
=165	=165	=165	=165
2B-y	2G	2d	0r
2G	2E	2g	.
1A	1D	2g	.
.	.	2f#i	.
=166	=166	=166	=166
1G	2r	2g	0dd
.	2.B-y	2d	.
2r	.	2f	.
.	4A	.	.
2D	2F	2a	.
=167	=167	=167	=167
2E	2G	2g	1cc
2F	2A	4f	.
.	.	4e	.
2BB-y	2B-y	1d	1dd
[2B-y	2G	.	.
=168	=168	=168	=168
2B-]	2d	2r	1g
2B-y	2d	2d	.
2G	1d	2B-y	2.dd
2B-y	.	2G	.
.	.	.	4dd
=169	=169	=169	=169
1A	1e	2c	2cc
.	.	2c	2cc
2D	2f	2A	2dd
2E	2e	[2c	2g
=170	=170	=170	=170
2F	2A	2c]	2a
2.G	2.e	4B-y	2.b-y
.	.	4A	.
.	.	2G	.
4F	4d	.	4a
4E	[2d	[2A	4g
4D	.	.	4f
=171	=171	=171	=171
1E	2d]	2A]	1g
.	2c#i	2G	.
[1D	[1d	2A	1f
.	.	2d	.
=172	=172	=172	=172
1D]	1d]	2f	2r
.	.	2f	2a
1r	1r	2.e	2cc
.	.	.	2cc
.	.	4f	.
=173	=173	=173	=173
1r	2r	1g	2.b-y
.	2G	.	.
.	.	.	4cc
2r	2B-y	1r	1dd
2D	2B-y	.	.
=174	=174	=174	=174
2F	2.A	0r	1r
2F	.	.	.
.	4B-y	.	.
2.E	1c	.	2r
.	.	.	2g
4F	.	.	.
=175	=175	=175	=175
2G	1r	2r	2b-y
1D	.	2d	2b-y
.	1d	2f	2.a
2D	.	2f	.
.	.	.	4b-y
=176	=176	=176	=176
4AA	2.c	2.e	2cc
4BB-y	.	.	.
4C	.	.	1g
4D	4B-y	4f	.
2E-X	2G	2g	.
2D	[2A	2d	2f
=177	=177	=177	=177
2.E-i	4A]	2B-y	2.g
.	4G	.	.
.	1G	2.e-i	.
4D	.	.	4a
4BB-y	.	.	2b-y
4C	.	4d	.
2D	2F	[2d	[2a
=178	=178	=178	=178
1E-i	1G	2d]	2a]
.	.	2c	1g
1D	1A	1d	.
.	.	.	2f#i
=179	=179	=179	=179
0Gl	0Gl	0dl	0gl
==	==	==	==
*-	*-	*-	*-
!!!system-decoration: s1,s2,s3,s4
!!!RDF**kern: i = editorial accidental
!!!RDF**kern: l = terminal long
!!!ENC: Maura Sugg
!!!END: 2026/6/15
!!!EED: Benjamin Ory
!!!EEV: 2026/06/21
!!!YEC: Copyright 2026 Benjamin Ory, All Rights Reserved
!!!ONB: Translated from MusicXML on 2026/06/21
!!!verovio: header encoded
!!!header-left: Edited by Zoe Saunders (2010)\n
!!!header-right:
!!!header-center:
!!muse2ps: T^@{OPR}^u^@{ONM}{. }@{OTL}^C^@{COM}^i2I150v90,90,90,120c120z18l2770t130
